public/favicon.svg

<svg width="116" height="165" viewBox="0 0 116 165" fill="none" xmlns="http://www.w3.org/2000/svg">
<path d="M55.5156 151.768C68.5687 141.813 67.3272 132.145 67.3272 132.145C67.3272 132.145 59.3604 131.274 56.0734 119.032C48.1572 124.267 39.671 126.313 35.1288 127.082C35.1244 127.069 35.1194 127.057 35.115 127.045C46.0161 122.16 49.419 115.781 49.419 115.781C49.419 115.781 38.7598 119.627 31.2891 118.161C25.8965 117.104 20.811 110.376 20.811 110.376C20.811 110.376 17.9427 116.267 20.1736 122.557C23.4534 131.807 38.0703 144.971 38.0703 144.971C38.0703 144.971 33.4397 143.529 27.6313 138.995C30.2236 158.771 53.8837 164.594 53.8837 164.594C53.8837 164.594 53.8352 164.577 53.749 164.542C53.7939 164.559 53.8381 164.577 53.8837 164.594C61.1791 162.446 61.839 151.768 61.839 151.768C61.839 151.768 59.9797 151.954 55.5156 151.768Z" fill="#152E45"/>
<path d="M34.2976 108.457C38.9804 110.318 44.5106 109.175 44.5106 109.175L37.812 104.483L25.4572 100.012C25.4572 100.012 29.575 106.58 34.2976 108.457Z" fill="white"/>
<path d="M80.7602 108.457C76.0767 110.318 70.5464 109.175 70.5464 109.175L77.245 104.483L89.5998 100.012C89.5998 100.012 85.4828 106.58 80.7602 108.457Z" fill="white"/>
<path d="M32.0985 115.534C38.2545 116.947 46.0157 111.835 46.0157 111.835C46.0157 111.835 38.3885 112.508 32.9358 111.583C28.198 110.779 22.5302 106.971 22.5302 106.971C22.5302 106.971 25.9424 114.122 32.0985 115.534Z" fill="#637996"/>
<path d="M41.3598 101.261C39.3056 100.836 37.2978 100.349 35.3588 99.815C31.5495 98.7654 27.9924 97.5377 24.7684 96.2578C17.4027 91.8583 12.5034 84.1189 9.39966 77.1943C13.5421 79.2195 17.4947 80.8949 21.0396 82.2602C26.8798 84.5151 31.6183 85.926 34.2687 86.6489C35.6977 91.9039 37.3956 96.683 39.2542 98.9429C39.9372 99.7686 40.6427 100.544 41.3598 101.261Z" fill="#152E45"/>
<path d="M33.4602 83.5226C30.3738 82.6737 27.4417 81.7154 24.711 80.7057C23.7013 80.3384 22.7264 79.9604 21.7739 79.5815C12.383 75.0436 7.61042 67.5222 5.58521 63.3921C9.11339 65.0899 12.9226 66.7255 16.5653 68.1763C22.6235 70.5861 28.2168 72.4846 31.2683 73.3219C31.842 76.3626 32.5939 79.9603 33.4602 83.5226Z" fill="#152E45"/>
<path d="M80.4617 63.2599C80.4617 63.2599 76.4229 90.2519 71.1215 96.6882C65.4146 103.63 58.0134 106.538 57.5549 106.716C57.5375 106.722 57.5317 106.722 57.5317 106.722C57.5317 106.722 52.4542 104.829 47.389 100.285L47.3774 100.274C46.2069 99.2241 45.0429 98.0311 43.9354 96.6882C38.6406 90.2519 34.5959 63.2599 34.5959 63.2599H80.4617Z" fill="#152E45"/>
<path d="M69.045 111.835C69.045 111.835 76.8069 116.947 82.963 115.534C89.1183 114.122 92.5313 106.972 92.5313 106.972C92.5313 106.972 86.8635 110.779 82.1256 111.582C76.6729 112.508 69.045 111.835 69.045 111.835Z" fill="#E51641"/>
<path d="M94.8873 122.557C97.1183 116.267 94.2499 110.376 94.2499 110.376C94.2499 110.376 89.1644 117.104 83.7726 118.161C76.3019 119.627 65.642 115.781 65.642 115.781C65.642 115.781 69.0448 122.16 79.9459 127.044C73.7638 145.257 64.4816 151.528 64.4816 151.528C64.4816 151.528 73.7508 150.49 76.94 148.109C71.4728 160.839 61.1779 164.594 61.1779 164.594C61.1779 164.594 84.8373 158.771 87.4304 138.995C81.622 143.529 76.9914 144.971 76.9914 144.971C76.9914 144.971 91.6076 131.807 94.8873 122.557Z" fill="#E51641"/>
<path d="M53.8545 164.583C53.1772 164.418 40.7746 161.158 33.1902 151.802C30.4313 148.394 28.3083 144.172 27.6317 138.997C33.2539 143.386 37.7803 144.877 38.0613 144.964C37.6195 144.556 23.4031 131.666 20.1734 122.556C17.9417 116.268 20.81 110.376 20.81 110.376C20.81 110.376 25.8991 117.106 31.2918 118.161C34.2637 118.747 37.7455 118.483 40.855 117.967C45.5588 117.175 49.4202 115.78 49.4202 115.78C49.4202 115.78 46.018 122.16 35.1176 127.042C41.2969 145.256 50.5791 151.527 50.5791 151.527C50.5791 151.527 41.3077 150.488 38.1243 148.108C43.4133 160.442 53.2468 164.354 53.8545 164.583Z" fill="#637996"/>
<path d="M105.664 77.1945C104.172 80.5105 102.272 84.0213 99.8808 87.2569C97.2935 90.7677 94.1267 93.9692 90.2885 96.2581C85.424 98.1855 79.8017 100.01 73.7036 101.261C74.4207 100.543 75.1262 99.7689 75.8093 98.9431C77.6621 96.6825 79.3657 91.9041 80.7883 86.6492C84.6895 85.5822 93.083 83.0406 102.881 78.5143C103.799 78.0956 104.722 77.6538 105.664 77.1945Z" fill="#0F1124"/>
<path d="M109.479 63.3921C108.32 65.7556 106.265 69.215 102.968 72.5998C100.495 75.1407 97.3106 77.6367 93.2841 79.5815C89.761 80.9867 85.8257 82.3637 81.5978 83.5226C82.4699 79.9603 83.2153 76.3626 83.7947 73.3219C87.8966 72.1978 96.582 69.152 104.826 65.526C106.404 64.8321 107.97 64.1208 109.479 63.3921Z" fill="#0F1124"/>
<path d="M113.701 44.8279C113.018 48.1779 110.982 51.0868 108.056 52.8368L95.3948 60.4031C95.3666 60.4205 95.3318 60.4379 95.3086 60.4553L95.171 60.5407L95.108 60.5813C95.0957 60.5871 95.0906 60.5871 95.0906 60.5871L91.138 62.9506C91.8268 62.4457 102.87 54.1674 106.289 42.5101C106.289 42.5101 101.653 46.1245 93.8339 48.9754C97.4309 32.2124 82.6184 20.7332 82.6184 20.7332C82.6184 20.7332 83.5883 35.1328 68.707 47.237C68.707 47.237 71.839 30.0901 57.5314 8.47403C43.2238 30.0901 46.3507 47.237 46.3507 47.237C31.4695 35.1328 32.4386 20.7332 32.4386 20.7332C32.4386 20.7332 17.6319 32.2124 21.2289 48.9754C13.4099 46.1245 8.76838 42.5101 8.76838 42.5101C11.7004 52.4862 20.2134 59.9902 23.0361 62.2617C23.512 62.6406 23.8278 62.876 23.9256 62.9506L7.00754 52.8368C4.08199 51.0868 2.03939 48.1779 1.35635 44.8279C0.410382 40.164 -0.530513 32.9932 0.353164 25.2023C4.05881 29.3614 13.7597 35.8267 13.7597 35.8267C13.7597 35.8267 12.1249 25.4204 19.7492 18.4096C27.3792 11.3938 38.8235 7.34336 38.8235 7.34336C38.8235 7.34336 39.2886 11.1924 40.6887 15.2718C41.1305 16.5684 41.6694 17.8881 42.3177 19.1151C42.3865 19.2477 42.4611 19.3795 42.5299 19.5055C50.0506 6.4662 57.5314 0.000150665 57.5314 0.000150665C57.5314 0.000150665 65.0123 6.4662 72.5271 19.5055C75.3904 14.3824 76.2335 7.34336 76.2335 7.34336C76.2335 7.34336 87.6786 11.3938 95.3086 18.4096C102.939 25.4204 101.304 35.8267 101.304 35.8267C101.304 35.8267 111.004 29.3614 114.71 25.2023C115.593 32.9932 114.652 40.164 113.701 44.8279Z" fill="#152E45"/>
<path d="M46.0158 61.3461C46.0158 61.3461 67.3588 86.6982 56.6685 106.971C61.9568 111.247 70.6154 102.737 70.6154 102.737L78.4569 82.374L81.5991 60.4972L46.0158 61.3461Z" fill="#0F1124"/>
<path d="M79.6992 64.676L79.663 64.3971L79.6499 64.2965L79.5934 64.211L79.4341 63.9669L79.2052 63.625L79.1204 63.4983L79.0408 63.4715L78.9973 63.4179L78.864 63.2513H78.6504H78.3809L74.2798 61.8845L73.0919 61.4883L72.6464 61.3398L72.5218 61.7925L72.1894 62.9999L71.7968 64.4247L71.4658 65.685L70.8175 68.1716L69.5231 73.1282L69.3551 73.7518C68.977 75.1483 68.5866 76.5933 68.1715 77.9855C67.6928 79.6036 67.2169 81.1769 66.6577 82.648C66.0384 84.2777 65.3945 85.785 64.7447 87.1272C64.3775 87.8964 63.9842 88.6497 63.6445 89.2951C63.5163 89.5131 63.3816 89.7507 63.2461 89.989C62.9709 90.4721 62.713 90.927 62.4334 91.3565C61.4998 92.861 60.5734 94.1314 59.5948 95.2498C59.4202 95.4548 59.2529 95.6366 59.0863 95.8184C58.9777 95.9372 58.8799 96.0429 58.7836 96.1501C58.7118 96.2182 58.622 96.3088 58.5315 96.3986C58.4366 96.4942 58.349 96.5768 58.2642 96.6564C58.1527 96.7622 58.044 96.865 57.9412 96.9708C56.9242 98.0247 54.7252 100.45 54.7034 100.475L54.1377 101.099L54.9714 101.215C54.9845 101.217 55.2981 101.26 55.8044 101.26C56.922 101.26 59.0972 101.048 61.113 99.6327C61.1941 99.5762 61.2796 99.5255 61.3658 99.4741L61.4425 99.4284L61.4795 99.406L61.4925 99.398L61.5056 99.3893L61.5403 99.3647C61.6555 99.2836 61.7714 99.2039 61.888 99.1235C62.1538 98.941 62.4139 98.762 62.6746 98.565L62.6804 98.5614L62.7 98.5462C62.8282 98.4433 62.9434 98.3528 63.0578 98.2623C63.3055 98.0674 63.554 97.8719 63.7944 97.6669L64.8208 96.7629L64.8454 96.7412L64.8874 96.7006C65.5357 96.0625 66.2064 95.4019 66.825 94.6906C68.1317 93.2608 69.229 91.7216 70.2178 90.273L70.2214 90.2679L70.2351 90.2469C71.3651 88.4802 72.243 86.9563 73.01 85.4359C74.8143 81.7498 76.0703 78.0847 76.9641 75.3019C77.4574 73.7757 77.9354 72.1539 78.4685 70.2004L78.604 69.6825C78.7815 69.0082 78.964 68.3121 79.1313 67.6146L79.4333 66.3391L79.5797 65.6756L79.6492 65.3591L79.6601 65.3076C79.6825 65.2077 79.7354 64.9701 79.6992 64.676Z" fill="#0F1124"/>
<path d="M79.6992 58.1069L79.6608 57.8165L79.647 57.7107L79.5891 57.6223L79.4218 57.3666L79.1835 57.0096L79.0951 56.8777L79.0118 56.8502L78.9662 56.7944L78.8271 56.6206H78.604H78.323L74.0429 55.1937L72.8029 54.7808L72.3386 54.6251L72.2082 55.0981L71.862 56.3577L71.452 57.8447L71.1072 59.1601L70.4307 61.7553L69.0798 66.927L68.9038 67.5775C68.5098 69.0355 68.1027 70.5429 67.6696 71.9959C67.1691 73.6843 66.6729 75.3263 66.0898 76.8619C65.4423 78.5619 64.7716 80.1351 64.0929 81.5359C63.7097 82.3385 63.299 83.1244 62.9448 83.798C62.8115 84.0255 62.6703 84.2732 62.529 84.5216C62.2422 85.0265 61.972 85.5009 61.6809 85.9493C60.7066 87.5189 59.7397 88.8451 58.7191 90.012C58.5366 90.2264 58.3627 90.4154 58.1882 90.6052C58.0744 90.7291 57.7036 91.1166 57.6094 91.2108C57.5095 91.3107 57.4189 91.3962 57.3306 91.4802C57.2139 91.5903 57.1002 91.6975 56.993 91.8083C55.9319 92.9071 53.6372 95.4394 53.614 95.4647L53.0244 96.1152L53.8944 96.2369C53.9081 96.239 54.2348 96.2839 54.7636 96.2839C55.9297 96.2839 58.199 96.063 60.3032 94.5861C60.3879 94.5267 60.4778 94.4738 60.5668 94.4202L60.6472 94.3724L60.6849 94.3493L60.6994 94.3406L60.7124 94.3312L60.7487 94.3058C60.8689 94.2211 60.9906 94.1385 61.1115 94.0545C61.3897 93.8632 61.6606 93.6771 61.9336 93.4714L61.938 93.4678L61.959 93.4518C62.093 93.3439 62.2125 93.2505 62.3328 93.1556C62.5913 92.952 62.8506 92.7478 63.1013 92.5348L64.1725 91.591L64.1986 91.5686L64.2421 91.5266C64.9186 90.8602 65.619 90.1714 66.2637 89.4282C67.6283 87.9368 68.772 86.3303 69.8049 84.8179L69.8085 84.8128L69.8223 84.7918C71.0015 82.9477 71.9185 81.357 72.7174 79.7708C74.6014 75.9246 75.9117 72.0994 76.8439 69.1963C77.3603 67.6028 77.8587 65.9108 78.4142 63.8718L78.5562 63.3307C78.7409 62.6274 78.9321 61.9009 79.106 61.173L79.421 59.8424L79.5739 59.1499L79.6463 58.8196L79.6579 58.766C79.6811 58.6617 79.7361 58.414 79.6992 58.1069Z" fill="#0F1124"/>
<path d="M53.0247 78.174H49.6341L45.3657 84.9914L49.6341 91.808H53.0247L48.7562 84.9914L53.0247 78.174Z" fill="white"/>
<path d="M62.0366 91.8081H65.4279L69.6949 84.9908L65.4279 78.1741H62.0366L66.3051 84.9908L62.0366 91.8081Z" fill="white"/>
<path d="M40.3327 146.231C34.1426 145.991 30.1617 141.98 30.1617 141.98C30.1617 141.98 30.2587 146.461 33.1901 151.802C30.4311 148.394 28.3081 144.172 27.6316 138.997C33.2538 143.386 37.7801 144.877 38.0612 144.964C37.6193 144.557 23.403 131.666 20.1732 122.556C17.9416 116.268 20.8099 110.376 20.8099 110.376C20.8099 110.376 25.899 117.106 31.2916 118.161C34.2635 118.747 37.7454 118.482 40.8549 117.967C38.8579 119.561 34.9285 122.252 30.1617 123.164C30.1617 130.811 34.9857 141.011 40.3327 146.231Z" fill="white"/>
<path d="M113.701 44.8278C113.018 48.1778 110.982 51.0867 108.056 52.8366L95.3948 60.403C97.3165 59.2216 107.619 52.6179 109.479 45.8541C111.526 38.3907 111.067 33.5667 111.067 33.5667C111.067 33.5667 103.719 39.3084 97.4027 42.0623C99.3641 34.1686 98.642 26.1655 91.5103 19.5517C84.7813 13.3095 79.0099 10.7685 79.0099 10.7685C79.0099 10.7685 77.433 27.4512 73.1414 36.7849C71.7188 18.1226 57.5315 3.25294 57.5315 3.25294C43.9069 17.1933 41.0501 33.6811 41.0501 33.6811C41.0501 33.6811 38.8533 27.7873 42.5299 19.5054C50.0506 6.46605 57.5315 -4.86947e-06 57.5315 -4.86947e-06C57.5315 -4.86947e-06 65.0123 6.46605 72.5272 19.5054C75.3904 14.3822 76.2335 7.34321 76.2335 7.34321C76.2335 7.34321 87.6786 11.3936 95.3086 18.4095C102.939 25.4202 101.304 35.8266 101.304 35.8266C101.304 35.8266 111.004 29.3613 114.71 25.2022C115.593 32.993 114.652 40.1638 113.701 44.8278Z" fill="#E51641"/>
<path d="M40.6886 15.2716C39.5927 14.2452 38.0209 12.5756 36.9192 10.5903C36.9192 10.5903 25.0214 15.4034 19.7266 26.2516C15.9862 33.9107 19.2442 45.0631 19.2442 45.0631C19.2442 45.0631 10.18 42.1716 3.14681 32.9009C3.14681 44.5923 9.52595 54.299 23.0361 62.2622C23.5127 62.6403 23.8278 62.8757 23.9255 62.9503L7.00747 52.8366C4.08191 51.0866 2.03932 48.1784 1.357 44.8277C0.410309 40.1638 -0.530591 32.9929 0.353086 25.2021C4.05874 29.3612 13.7596 35.8265 13.7596 35.8265C13.7596 35.8265 12.1248 25.4201 19.7491 18.4101C27.3791 11.3935 38.8242 7.34312 38.8242 7.34312C38.8242 7.34312 39.2885 11.1929 40.6886 15.2716Z" fill="#637996"/>
<path d="M80.4617 63.2599C80.4617 63.2599 76.4228 90.2519 71.1215 96.6882C65.4145 103.63 58.0134 106.538 57.5549 106.716C57.5375 106.722 57.5317 106.722 57.5317 106.722C57.5317 106.722 66.3547 99.8151 69.0456 93.189C71.7357 86.5629 76.977 65.1243 76.977 65.1243L61.811 63.2599H80.4617Z" fill="#E51641"/>
<path d="M38.3879 65.5493C38.3879 65.5493 41.79 91.5714 47.3775 100.274C46.2069 99.2239 45.043 98.0309 43.9355 96.6888C38.6406 90.2517 34.596 63.2597 34.596 63.2597H47.5042L38.3879 65.5493Z" fill="#637996"/>
<path d="M33.4601 83.5226C30.3738 82.6737 27.4417 81.7154 24.711 80.7057C20.0297 77.9178 17.1215 74.3439 17.1215 74.3439C17.1215 74.3439 21.4487 76.9624 27.0919 77.7519C18.9635 72.678 16.5652 68.1763 16.5652 68.1763C22.6235 70.5861 28.2167 72.4846 31.2683 73.3219C31.842 76.3626 32.5938 79.9603 33.4601 83.5226Z" fill="#637996"/>
<path d="M41.3598 101.261C39.3056 100.836 37.2977 100.349 35.3587 99.815C26.4039 96.0231 19.2381 88.4503 18.9629 88.1577C19.1983 88.2787 24.6713 91.0774 32.8975 92.2994C27.7924 90.1547 22.5085 84.0442 21.0395 82.2602C26.8798 84.5151 31.6183 85.926 34.2686 86.6489C35.6977 91.9039 37.3955 96.683 39.2541 98.9429C39.9372 99.7686 40.6427 100.544 41.3598 101.261Z" fill="#637996"/>
<path d="M81.6034 83.5226C84.6897 82.6737 87.6218 81.7154 90.3518 80.7057C95.0331 77.9178 97.942 74.3439 97.942 74.3439C97.942 74.3439 93.6149 76.9624 87.9717 77.7519C96.1 72.678 98.4983 68.1763 98.4983 68.1763C92.44 70.5861 86.8468 72.4846 83.7945 73.3219C83.2208 76.3626 82.4697 79.9603 81.6034 83.5226Z" fill="#E51641"/>
<path d="M73.7036 101.261C75.7578 100.836 77.7649 100.349 79.7039 99.815C88.6595 96.0231 95.8252 88.4503 96.1005 88.1577C95.8651 88.2787 90.3921 91.0774 82.1659 92.2994C87.271 90.1547 92.5549 84.0442 94.0238 82.2602C88.1836 84.5151 83.4443 85.926 80.7948 86.6489C79.3657 91.9039 77.6678 96.683 75.8092 98.9429C75.1262 99.7686 74.4207 100.544 73.7036 101.261Z" fill="#E51641"/>
</svg>

<svg xmlns="http://www.w3.org/2000/svg" width="116" height="165" fill="none" viewBox="0 0 116 165"><path fill="#152e45" d="M55.516 151.768c13.053-9.955 11.811-19.623 11.811-19.623s-7.967-.871-11.254-13.113c-7.916 5.235-16.402 7.281-20.944 8.05l-.014-.037c10.901-4.885 14.304-11.264 14.304-11.264s-10.66 3.846-18.13 2.38c-5.393-1.057-10.478-7.785-10.478-7.785s-2.868 5.891-.637 12.181c3.28 9.25 17.896 22.414 17.896 22.414s-4.63-1.442-10.439-5.976c2.593 19.776 26.253 25.599 26.253 25.599s-.049-.017-.135-.052l.135.052c7.295-2.148 7.955-12.826 7.955-12.826s-1.86.186-6.323 0"/><path fill="#fff" d="M34.298 108.457c4.682 1.861 10.213.718 10.213.718l-6.699-4.692-12.355-4.471s4.118 6.568 8.84 8.445m46.463 0c-4.683 1.861-10.214.718-10.214.718l6.699-4.692 12.355-4.471s-4.117 6.568-8.84 8.445"/><path fill="#637996" d="M32.099 115.534c6.156 1.413 13.917-3.699 13.917-3.699s-7.627.673-13.08-.252c-4.738-.804-10.406-4.612-10.406-4.612s3.412 7.151 9.569 8.563"/><path fill="#152e45" d="M41.36 101.261a96 96 0 0 1-6.001-1.446 103 103 0 0 1-10.59-3.557c-7.366-4.4-12.266-12.14-15.37-19.064 4.143 2.025 8.096 3.7 11.64 5.066 5.84 2.255 10.58 3.666 13.23 4.389 1.429 5.255 3.127 10.034 4.985 12.294a33 33 0 0 0 2.106 2.318m-7.9-17.738a108 108 0 0 1-8.749-2.817c-1.01-.368-1.985-.746-2.937-1.124-9.391-4.538-14.164-12.06-16.189-16.19 3.528 1.698 7.338 3.333 10.98 4.784 6.058 2.41 11.652 4.309 14.703 5.146.574 3.04 1.326 6.638 2.192 10.2M80.462 63.26s-4.04 26.992-9.34 33.428c-5.707 6.942-13.109 9.85-13.567 10.028q-.024.008-.023.006s-5.078-1.893-10.143-6.437l-.012-.011a33 33 0 0 1-3.442-3.586c-5.294-6.436-9.34-33.428-9.34-33.428z"/><path fill="#e51641" d="M69.045 111.835s7.762 5.112 13.918 3.699c6.155-1.412 9.568-8.562 9.568-8.562s-5.668 3.807-10.405 4.61c-5.453.926-13.081.253-13.081.253"/><path fill="#e51641" d="M94.887 122.557c2.231-6.29-.637-12.181-.637-12.181s-5.086 6.728-10.477 7.785c-7.471 1.466-18.131-2.38-18.131-2.38s3.403 6.379 14.304 11.263c-6.182 18.213-15.464 24.484-15.464 24.484s9.269-1.038 12.458-3.419c-5.467 12.73-15.762 16.485-15.762 16.485s23.66-5.823 26.252-25.599c-5.808 4.534-10.439 5.976-10.439 5.976s14.617-13.164 17.896-22.414"/><path fill="#637996" d="M53.855 164.583c-.678-.165-13.08-3.425-20.665-12.781-2.759-3.408-4.882-7.63-5.558-12.805 5.622 4.389 10.148 5.88 10.43 5.967-.442-.408-14.659-13.298-17.889-22.408-2.231-6.288.637-12.18.637-12.18s5.09 6.73 10.482 7.785c2.972.586 6.453.322 9.563-.194 4.704-.792 8.565-2.187 8.565-2.187s-3.402 6.38-14.302 11.262c6.179 18.214 15.461 24.485 15.461 24.485s-9.271-1.039-12.455-3.419c5.29 12.334 15.123 16.246 15.73 16.475"/><path fill="#0f1124" d="M105.664 77.195c-1.492 3.316-3.392 6.826-5.783 10.062-2.588 3.51-5.754 6.712-9.593 9.001-4.864 1.928-10.486 3.752-16.584 5.003a34 34 0 0 0 2.105-2.318c1.853-2.26 3.557-7.039 4.98-12.294 3.9-1.067 12.294-3.608 22.092-8.135.918-.418 1.841-.86 2.783-1.32m3.815-13.802a36.2 36.2 0 0 1-6.511 9.208 34.3 34.3 0 0 1-9.684 6.982 111 111 0 0 1-11.686 3.94c.872-3.562 1.617-7.16 2.197-10.2 4.102-1.124 12.787-4.17 21.031-7.796a145 145 0 0 0 4.653-2.134"/><path fill="#152e45" d="M113.701 44.828c-.683 3.35-2.719 6.259-5.645 8.009l-12.661 7.566c-.028.017-.063.035-.086.052l-.138.086-.063.04q-.017.008-.017.006l-3.953 2.364c.689-.505 11.732-8.784 15.151-20.44 0 0-4.636 3.613-12.455 6.464 3.597-16.763-11.216-28.242-11.216-28.242s.97 14.4-13.911 26.504c0 0 3.132-17.147-11.176-38.763-14.307 21.616-11.18 38.763-11.18 38.763C31.47 35.133 32.439 20.733 32.439 20.733s-14.807 11.48-11.21 28.242c-7.82-2.85-12.46-6.465-12.46-6.465 2.931 9.976 11.444 17.48 14.267 19.752.476.379.792.614.89.689L7.008 52.837a12.14 12.14 0 0 1-5.652-8.01C.41 40.165-.53 32.994.353 25.203 4.06 29.362 13.76 35.827 13.76 35.827S12.125 25.42 19.75 18.41c7.63-7.016 19.074-11.067 19.074-11.067s.465 3.85 1.865 7.929c.441 1.296.98 2.616 1.629 3.843.069.133.143.265.212.39C50.05 6.467 57.53 0 57.53 0s7.481 6.466 14.996 19.506c2.863-5.124 3.707-12.163 3.707-12.163s11.445 4.05 19.075 11.067c7.63 7.01 5.995 17.417 5.995 17.417s9.7-6.466 13.406-10.625c.883 7.791-.058 14.962-1.009 19.626"/><path fill="#0f1124" d="M46.016 61.346s21.343 25.352 10.653 45.625c5.288 4.276 13.946-4.234 13.946-4.234l7.842-20.363 3.142-21.877z"/><path fill="#0f1124" d="m79.7 64.676-.037-.279-.013-.1-.057-.086-.159-.244-.229-.342-.085-.127-.08-.026-.043-.054-.133-.167h-.484l-4.1-1.366-1.188-.397-.446-.148-.124.452L72.189 63l-.392 1.425-.331 1.26-.648 2.487-1.295 4.956-.168.624c-.378 1.396-.768 2.841-1.184 4.234-.478 1.618-.954 3.19-1.513 4.662a56 56 0 0 1-1.913 4.48c-.368.768-.76 1.522-1.1 2.167-.129.218-.263.456-.399.694-.275.483-.533.938-.813 1.367-.933 1.505-1.86 2.775-2.838 3.894-.175.205-.342.387-.509.568l-.302.332c-.072.068-.162.159-.252.249a10 10 0 0 1-.268.257q-.167.157-.323.315c-1.017 1.054-3.216 3.479-3.238 3.504l-.565.624.833.116c.014.002.327.045.833.045 1.118 0 3.293-.212 5.309-1.627q.123-.084.253-.159l.077-.046.037-.022.013-.008.013-.009.034-.024.348-.241c.266-.183.526-.362.787-.559l.005-.004.02-.015c.128-.103.243-.193.358-.284.248-.195.496-.39.736-.595l1.027-.904.024-.022.042-.04c.649-.638 1.32-1.3 1.938-2.01 1.307-1.43 2.404-2.97 3.393-4.418l.003-.005.014-.021c1.13-1.767 2.008-3.29 2.775-4.811 1.804-3.686 3.06-7.351 3.954-10.134.493-1.526.971-3.148 1.505-5.102l.135-.517c.177-.675.36-1.37.527-2.068l.302-1.276.147-.663.07-.317.01-.051c.023-.1.075-.338.04-.632"/><path fill="#0f1124" d="m79.7 58.107-.04-.29-.013-.106-.058-.089-.167-.255-.239-.357-.088-.132-.083-.028-.046-.056-.139-.173h-.504l-4.28-1.427-1.24-.413-.464-.156-.13.473-.347 1.26-.41 1.487-.345 1.315-.676 2.595-1.351 5.172-.176.65a179 179 0 0 1-1.234 4.419c-.5 1.688-.997 3.33-1.58 4.866a59 59 0 0 1-1.997 4.674 66 66 0 0 1-1.148 2.262c-.133.227-.275.475-.416.724-.287.504-.557.979-.848 1.427-.974 1.57-1.941 2.896-2.962 4.063-.182.214-.356.403-.53.593-.115.124-.485.512-.58.606-.1.1-.19.185-.278.27q-.176.163-.338.327c-1.061 1.1-3.356 3.631-3.379 3.657l-.59.65.87.122c.014.002.34.047.87.047 1.166 0 3.435-.221 5.54-1.698.084-.06.174-.112.263-.166l.08-.048.038-.023.014-.008.013-.01.037-.025q.181-.127.362-.251c.279-.192.55-.378.823-.584l.004-.003.021-.016c.134-.108.253-.201.374-.296.258-.204.518-.408.768-.621l1.072-.944.026-.022.043-.042c.677-.667 1.377-1.356 2.022-2.099 1.364-1.491 2.508-3.098 3.54-4.61l.004-.005.014-.021c1.18-1.844 2.096-3.435 2.895-5.021 1.884-3.846 3.195-7.672 4.127-10.575a116 116 0 0 0 1.57-5.324l.142-.541c.185-.704.376-1.43.55-2.158l.315-1.33.153-.693.072-.33.012-.054c.023-.104.078-.352.041-.66"/><path fill="#fff" d="M53.025 78.174h-3.39l-4.27 6.817 4.27 6.817h3.39l-4.269-6.817zm9.012 13.634h3.39l4.268-6.817-4.267-6.817h-3.391l4.268 6.817zm-21.704 54.423c-6.19-.24-10.171-4.251-10.171-4.251s.097 4.481 3.028 9.822c-2.759-3.408-4.882-7.63-5.558-12.805 5.622 4.389 10.148 5.88 10.43 5.967-.443-.407-14.659-13.298-17.889-22.408-2.231-6.288.637-12.18.637-12.18s5.089 6.73 10.482 7.785c2.971.586 6.453.321 9.563-.194-1.997 1.594-5.926 4.285-10.693 5.197 0 7.647 4.824 17.847 10.17 23.067"/><path fill="#e51641" d="M113.701 44.828c-.683 3.35-2.719 6.259-5.645 8.009l-12.661 7.566c1.922-1.181 12.224-7.785 14.084-14.549 2.047-7.463 1.588-12.287 1.588-12.287s-7.348 5.741-13.664 8.495c1.961-7.893 1.239-15.896-5.893-22.51-6.729-6.242-12.5-8.783-12.5-8.783s-1.577 16.681-5.87 26.015C71.72 18.123 57.531 3.253 57.531 3.253c-13.624 13.94-16.48 30.428-16.48 30.428s-2.198-5.894 1.479-14.176C50.05 6.466 57.532 0 57.532 0s7.48 6.466 14.995 19.505c2.863-5.123 3.707-12.162 3.707-12.162s11.445 4.05 19.075 11.067c7.63 7.01 5.995 17.417 5.995 17.417s9.7-6.466 13.406-10.625c.883 7.791-.058 14.962-1.009 19.626"/><path fill="#637996" d="M40.689 15.272c-1.096-1.027-2.668-2.696-3.77-4.682 0 0-11.898 4.813-17.192 15.662-3.74 7.659-.483 18.811-.483 18.811S10.18 42.172 3.147 32.901c0 11.691 6.379 21.398 19.89 29.361.476.378.79.614.889.688L7.006 52.837a12.14 12.14 0 0 1-5.65-8.01C.41 40.165-.531 32.994.353 25.203 4.06 29.362 13.76 35.827 13.76 35.827S12.125 25.42 19.75 18.41c7.63-7.017 19.074-11.067 19.074-11.067s.465 3.85 1.865 7.929"/><path fill="#e51641" d="M80.462 63.26s-4.04 26.992-9.34 33.428c-5.707 6.942-13.109 9.85-13.567 10.028q-.024.008-.023.006s8.823-6.907 11.514-13.533 7.931-28.065 7.931-28.065L61.811 63.26z"/><path fill="#637996" d="M38.388 65.55s3.402 26.021 8.99 34.724a33 33 0 0 1-3.443-3.585c-5.294-6.437-9.339-33.43-9.339-33.43h12.908zM33.46 83.523a108 108 0 0 1-8.749-2.817c-4.681-2.788-7.59-6.362-7.59-6.362s4.328 2.618 9.97 3.408c-8.128-5.074-10.526-9.576-10.526-9.576 6.058 2.41 11.652 4.309 14.703 5.146.574 3.04 1.326 6.638 2.192 10.2m7.9 17.739a96 96 0 0 1-6.001-1.446c-8.955-3.792-16.12-11.365-16.396-11.657.235.12 5.708 2.92 13.935 4.141-5.106-2.144-10.39-8.255-11.859-10.039 5.84 2.255 10.58 3.666 13.23 4.389 1.429 5.255 3.127 10.034 4.985 12.294a33 33 0 0 0 2.106 2.318"/><path fill="#e51641" d="M81.603 83.523a107 107 0 0 0 8.749-2.817c4.681-2.788 7.59-6.362 7.59-6.362s-4.327 2.618-9.97 3.408c8.128-5.074 10.526-9.576 10.526-9.576-6.058 2.41-11.651 4.309-14.704 5.146a205 205 0 0 1-2.19 10.2m-7.9 17.739a96 96 0 0 0 6-1.446C88.66 96.023 95.825 88.45 96.1 88.158c-.236.12-5.709 2.92-13.935 4.141 5.105-2.144 10.389-8.255 11.858-10.039-5.84 2.255-10.58 3.666-13.23 4.389-1.428 5.255-3.126 10.034-4.985 12.294a33 33 0 0 1-2.105 2.318"/></svg>
